assets/img/icono_seguridad.svg

<svg width="96" height="96" viewBox="0 0 96 96" fill="none" xmlns="http://www.w3.org/2000/svg">
<path d="M78 30.75H65.25V21C65.25 16.425 63.4326 12.0374 60.1976 8.80241C56.9626 5.56741 52.575 3.75 48 3.75C43.425 3.75 39.0374 5.56741 35.8024 8.80241C32.5674 12.0374 30.75 16.425 30.75 21V30.75H18C16.6076 30.75 15.2723 31.3031 14.2877 32.2877C13.3031 33.2723 12.75 34.6076 12.75 36V78C12.75 79.3924 13.3031 80.7277 14.2877 81.7123C15.2723 82.6969 16.6076 83.25 18 83.25H78C79.3924 83.25 80.7277 82.6969 81.7123 81.7123C82.6969 80.7277 83.25 79.3924 83.25 78V36C83.25 34.6076 82.6969 33.2723 81.7123 32.2877C80.7277 31.3031 79.3924 30.75 78 30.75ZM35.25 21C35.25 17.6185 36.5933 14.3755 38.9844 11.9844C41.3755 9.5933 44.6185 8.25 48 8.25C51.3815 8.25 54.6245 9.5933 57.0156 11.9844C59.4067 14.3755 60.75 17.6185 60.75 21V30.75H35.25V21ZM78.75 78C78.75 78.1989 78.671 78.3897 78.5303 78.5303C78.3897 78.671 78.1989 78.75 78 78.75H18C17.8011 78.75 17.6103 78.671 17.4697 78.5303C17.329 78.3897 17.25 78.1989 17.25 78V36C17.25 35.8011 17.329 35.6103 17.4697 35.4697C17.6103 35.329 17.8011 35.25 18 35.25H78C78.1989 35.25 78.3897 35.329 78.5303 35.4697C78.671 35.6103 78.75 35.8011 78.75 36V78ZM48 42.75C45.6125 42.7532 43.3092 43.6322 41.5267 45.2205C39.7442 46.8088 38.6064 48.9958 38.329 51.3671C38.0516 53.7384 38.6539 56.1291 40.0217 58.0859C41.3895 60.0427 43.4277 61.4296 45.75 61.9837V69C45.75 69.5967 45.9871 70.169 46.409 70.591C46.831 71.0129 47.4033 71.25 48 71.25C48.5967 71.25 49.169 71.0129 49.591 70.591C50.0129 70.169 50.25 69.5967 50.25 69V61.9837C52.5723 61.4296 54.6105 60.0427 55.9783 58.0859C57.3461 56.1291 57.9484 53.7384 57.671 51.3671C57.3936 48.9958 56.2558 46.8088 54.4733 45.2205C52.6908 43.6322 50.3875 42.7532 48 42.75ZM48 57.75C46.9616 57.75 45.9466 57.4421 45.0833 56.8652C44.2199 56.2883 43.547 55.4684 43.1496 54.5091C42.7523 53.5498 42.6483 52.4942 42.8509 51.4758C43.0534 50.4574 43.5535 49.5219 44.2877 48.7877C45.0219 48.0535 45.9574 47.5534 46.9758 47.3509C47.9942 47.1483 49.0498 47.2523 50.0091 47.6496C50.9684 48.047 51.7883 48.7199 52.3652 49.5833C52.9421 50.4466 53.25 51.4616 53.25 52.5C53.25 53.8924 52.6969 55.2277 51.7123 56.2123C50.7277 57.1969 49.3924 57.75 48 57.75Z" fill="#9F6F46"/>
</svg>

<svg width="96" height="96" fill="none" xmlns="http://www.w3.org/2000/svg"><path d="M78 30.75H65.25V21a17.25 17.25 0 1 0-34.5 0v9.75H18A5.25 5.25 0 0 0 12.75 36v42A5.25 5.25 0 0 0 18 83.25h60A5.25 5.25 0 0 0 83.25 78V36A5.25 5.25 0 0 0 78 30.75ZM35.25 21a12.75 12.75 0 0 1 25.5 0v9.75h-25.5V21Zm43.5 57a.75.75 0 0 1-.75.75H18a.75.75 0 0 1-.75-.75V36a.75.75 0 0 1 .75-.75h60a.75.75 0 0 1 .75.75v42ZM48 42.75a9.75 9.75 0 0 0-2.25 19.234V69a2.25 2.25 0 0 0 4.5 0v-7.016A9.75 9.75 0 0 0 48 42.75Zm0 15a5.25 5.25 0 1 1 0-10.499 5.25 5.25 0 0 1 0 10.499Z" fill="#9F6F46"/></svg>
